X: 10
T: Angels We Have Heard On High
M: 4/4
K: D
L: 1/4
V: 1 name="Vln I" snm="" clef=treble
%V: 1 name="Vla I" snm="" clef=alto middle=c
%%MIDI channel 1
%%MIDI program 40
"D" vf f "(Bm)" f a | "A" (a>g) "D" uf2 | (f e) (f a) |
w: An-gels we have heard on high Sweet-ly sing-ing
"A" (f>e) "D" ud2 | vf f "(Bm)" f a | "A" (a>e) "D" uf2 |
w: o'er the plains, And the moun-tains in re- ply
(f e) (f a) | "A" (f>e) "D" ud2 | va2 "B7" (b/a/g/f/) |
w: Ech-o-ing their joy-ous strains.  Glo - - -
"Em" g2 "A" (a/g/f/e/) | "D" f2 "G" (g/f/e/d/) | "A" (e>A) "A7" uA2 |
w: - - - - - - - - - - - ri- a
"D" vd "(A" c "D" (f "G" g) | "D)" (uf2 "A7" e2) | "D" va2 "G" (b/a/g/f/) |
w: in ex-cel-sis De-o, Glo - - -
"Em" g2 "A" (a/g/f/e/) | "D" f2 "G" (g/f/e/d/) | "A" (e>A) "A7" uA2 |
w: - - - - - - - - - - - ri- a
"D" vd "(A" e "D" (f "G" g) | "D)" (f2 "A7" e2) | "D" vd4 |]
w: in ex-cel-sis De - o.
%V: 2 name="Vla II" snm="" clef=alto middle=c
V: 2 name="Vln II" snm="" clef=treble
L: 1/4
%%MIDI channel 1
%%MIDI program 40
vd d d f | (e>e) ud2 | (d c) (d f) |
(A>G) uF2 | vd (d/c/) d f | (c A) ud2 |
(d c) (d f) | (A>G) uF2 | (vf/e/d/c/) B2 |
(e/d/c/B/) A2 | (d/c/B/A/) uG v^G | (uA>uA) A (uB/c/) |
ud c (d e) | (ud2 c2) | (vf/e/d/c/) B2 |
(e/d/c/B/) (A B/c/) | (d/c/B/A/) G ^G | (A>A) vA u(B/c/) |
vd c (d e) | (d2 A2) | vF4 |]

